X: 6
T:Passant par Boifort
R:Bourre  2 temps
C:Frdric Paris
O:France
A:Centre
S:80 airs  danser du centre France - La Chavanne - 1991
S:06
Z:Transcrit et/ou corrig par Michel BELLON - 2005-05-16
Z:Pour toute observation mailto:galouvielle@free.fr
M:2/4
L:1/8
K:C
e>d fe | B>c de | f3g | f>e dc | e>d fe | B>c de | fd2B | c4 ::
ed2e | c2A2 | G>A BG | c>A dc | ed2e | c2 Af | e>d cB | c4 :|
%%footer $D   Galouvielle-MBe 2005 \nBourre  2 temps France
